www/assets/icons/chrome_reader_mode.svg

<svg xmlns="http://www.w3.org/2000/svg" width="24" height="24" viewBox="0 0 24 24" fill='currentColor'><path d="M13 11.5h7V13h-7zM13 9h7v1.5h-7zm0 5h7v1.5h-7zm8-10.5H3c-1.1 0-2 .9-2 2v13c0 1.1.9 2 2 2h18c1.1 0 2-.9 2-2v-13c0-1.1-.9-2-2-2m0 15h-9v-13h9z"/></svg>

<svg width="24" height="24" viewBox="0 0 24 24" xmlns="http://www.w3.org/2000/svg" fill='currentColor'><path d="M13 11.5H20V13H13V11.5ZM13 9H20V10.5H13V9ZM13 14H20V15.5H13V14ZM21 3.5H3C1.9 3.5 1 4.4 1 5.5V18.5C1 19.6 1.9 20.5 3 20.5H21C22.1 20.5 23 19.6 23 18.5V5.5C23 4.4 22.1 3.5 21 3.5ZM21 18.5H12V5.5H21V18.5Z"/></svg>
